inkscape/KHM.svg

<svg><path d="M6.497 13.995c-.817-.015-1.397-.242-1.74-.68.305-.21.553-.473.744-.79-.295-.017-.488-.087-.58-.21.69-.701 1.008-1.59.955-2.666V6.577H4.593c-.398.373-.73.707-1 1.002-.268.294-.424.58-.465.854-.9-1.27-1.14-2.795-.718-4.577-.883 2.336-.418 4.325 1.395 5.967-.298.741-.863 1.36-1.694 1.858.162-1.352-.455-2.63-1.849-3.835-.369-1.798-.345-3.484.072-5.06C.744 1.796 1.802.868 3.51.003l-.375 2.414 1.457 1.46H5.74v-.41l.758-1.934.759 1.934v.41h1.146l1.457-1.46L9.484.003c1.709.865 2.768 1.793 3.177 2.783.417 1.576.44 3.262.072 5.06-1.394 1.204-2.01 2.483-1.85 3.835-.83-.497-1.395-1.117-1.693-1.858 1.813-1.642 2.278-3.63 1.395-5.967.422 1.782.182 3.308-.718 4.577-.041-.275-.197-.56-.465-.854a18.332 18.332 0 00-1-1.002H7.119V9.65c-.053 1.077.265 1.965.955 2.665-.092.124-.286.194-.58.21.19.318.439.581.745.79-.344.44-.924.666-1.742.681" fill="#000" fill-rule="nonzero"></path></svg>

<?xml version="1.0" encoding="UTF-8" standalone="no"?>
<svg
   version="1.1"
   id="svg4"
   sodipodi:docname="KHM.svg"
   inkscape:version="1.1 (c68e22c387, 2021-05-23)"
   xmlns:inkscape="http://www.inkscape.org/namespaces/inkscape"
   xmlns:sodipodi="http://sodipodi.sourceforge.net/DTD/sodipodi-0.dtd"
   xmlns="http://www.w3.org/2000/svg"
   xmlns:svg="http://www.w3.org/2000/svg">
  <defs
     id="defs8" />
  <sodipodi:namedview
     id="namedview6"
     pagecolor="#ffffff"
     bordercolor="#111111"
     borderopacity="1"
     inkscape:pageshadow="0"
     inkscape:pageopacity="0"
     inkscape:pagecheckerboard="1"
     showgrid="false"
     inkscape:zoom="41.559022"
     inkscape:cx="9.3722127"
     inkscape:cy="6.917872"
     inkscape:window-width="1920"
     inkscape:window-height="1017"
     inkscape:window-x="1912"
     inkscape:window-y="-8"
     inkscape:window-maximized="1"
     inkscape:current-layer="svg4" />
  <path
     d="m 4.757,13.315 c 0.305,-0.21 0.553,-0.473 0.744,-0.79 -0.295,-0.017 -0.488,-0.087 -0.58,-0.21 0.69,-0.701 1.008,-1.59 0.955,-2.666 V 6.577 H 4.593 C 4.195,6.95 3.863,7.284 3.593,7.579 3.325,7.873 3.169,8.159 3.128,8.433 2.228,7.163 1.988,5.638 2.41,3.856 1.527,6.192 1.992,8.181 3.805,9.823 3.507,10.564 2.942,11.183 2.111,11.681 2.273,10.329 1.656,9.051 0.262,7.846 -0.107,6.048 -0.083,4.362 0.334,2.786 0.744,1.796 1.802,0.868 3.51,0.003 L 3.135,2.417 4.592,3.877 H 5.74 V 3.467 L 6.498,1.533 7.257,3.467 v 0.41 H 8.403 L 9.86,2.417 9.484,0.003 c 1.709,0.865 2.768,1.793 3.177,2.783 0.417,1.576 0.44,3.262 0.072,5.06 -1.394,1.204 -2.01,2.483 -1.85,3.835 C 10.053,11.184 9.488,10.564 9.19,9.823 11.003,8.181 11.468,6.193 10.585,3.856 11.007,5.638 10.767,7.164 9.867,8.433 9.826,8.158 9.67,7.873 9.402,7.579 9.0816918,7.2322495 8.7481098,6.8980003 8.402,6.577 H 7.119 V 9.65 c -0.053,1.077 0.265,1.965 0.955,2.665 -0.092,0.124 -0.286,0.194 -0.58,0.21 0.19,0.318 0.439,0.581 0.745,0.79 -0.344,0.44 -0.924,0.666 -1.742,0.6805 C 5.68,13.98 5.1,13.753 4.757,13.315 Z"
     fill="#000000"
     fill-rule="nonzero"
     id="path2"
     sodipodi:nodetypes="ccccccccccccccccccccccccccccccccccccccc" />
</svg>
